X: 41
T: Kumingui quan buhe ren yiyang
L: 1/16
M: 2/4
K: Bb
f' f' d'2 f2 g b [I:setbarnb 1]| 
f g f dc4 | 
f'2 d' b f g f' d' | 
c'8 | 
f'2 d'2 f2 g b | 
f g f d2< c2 c | 
f'2 d' b f g f' d' | 
f8 |]

@@@ Tune index: 8915
